; generated by PrusaSlicer 2.7.2+win64 on 2024-04-24 at 18:31:22 UTC

; 

; external perimeters extrusion width = 0.42mm
; perimeters extrusion width = 0.44mm
; infill extrusion width = 0.44mm
; solid infill extrusion width = 0.44mm
; top infill extrusion width = 0.40mm
; first layer extrusion width = 0.42mm

M201 X500 Y500 Z100 E5000 ; sets maximum accelerations, mm/sec^2
M203 X500 Y500 Z10 E60 ; sets maximum feedrates, mm / sec
M204 S500 T1000 ; sets acceleration (S) and retract acceleration (R), mm/sec^2
M205 X8.00 Y8.00 Z0.40 E5.00 ; sets the jerk limits, mm/sec
M205 S0 T0 ; sets the minimum extruding and travel feed rate, mm/sec

; printing object middle id:0 copy 0
; stop printing object middle id:0 copy 0

;TYPE:Custom
G90 ; use absolute coordinates
M83 ; extruder relative mode
M104 S150 ; set temporary nozzle temp to prevent oozing during homing
M140 S70 ; set final bed temp
G4 S30 ; allow partial nozzle warmup
G28 ; home all axis
G1 Z50 F240
G1 X2.0 Y10 F3000
M104 S225 ; set final nozzle temp
M190 S70 ; wait for bed temp to stabilize
M109 S225 ; wait for nozzle temp to stabilize
G1 Z0.28 F240
G92 E0
G1 X2.0 Y140 E10 F1500 ; prime the nozzle
G1 X2.3 Y140 F5000
G92 E0
G1 X2.3 Y10 E10 F1200 ; prime the nozzle
G92 E0
G21 ; set units to millimeters
G90 ; use absolute coordinates
M83 ; use relative distances for extrusion
; Filament gcode
M107
;LAYER_CHANGE
;Z:0.2
;HEIGHT:0.2
G1 E-5 F3600
G1 Z.2 F9000
G1 X96.792 Y84.243
G1 Z.2
G1 E5 F2400
M204 S500
;TYPE:Skirt/Brim
;WIDTH:0.42
G1 F1200
G1 X97.801 Y83.234 E.04474
G1 X99.691 Y81.817 E.07407
G1 X101.404 Y80.918 E.06066
G1 X103.2 Y80.285 E.05971
G1 X104.595 Y79.981 E.04477
G1 X106.721 Y79.803 E.06689
G1 X123.262 Y79.802 E.51863
G1 X124.845 Y80.196 E.05115
G1 X126.059 Y81.286 E.05116
G1 X126.64 Y83.179 E.06209
G1 X126.64 Y113.416 E.94806
G1 X126.246 Y114.999 E.05115
G1 X125.529 Y115.92 E.0366
G1 X120.56 Y120.417 E.21013
G1 X113.596 Y124.88 E.25934
G1 X111.791 Y125.403 E.05892
G1 X96.737 Y125.403 E.47201
G1 X95.154 Y125.009 E.05115
G1 X93.941 Y123.919 E.05113
G1 X93.36 Y122.026 E.06209
G1 X93.36 Y93.179 E.90448
G1 X93.539 Y91.039 E.06733
G1 X93.978 Y89.183 E.0598
G1 X94.667 Y87.429 E.05909
G1 X95.621 Y85.749 E.06058
G1 X96.755 Y84.29 E.05794
; printing object middle id:0 copy 0
G1 E-3.5 F3600
;WIPE_START
G1 F7200
G1 X96.792 Y84.243 E-.02841
G1 X97.801 Y83.234 E-.6778
G1 X99.138 Y82.231 E-.79379
;WIPE_END
G1 X110.577 Y116.79 F9000
G1 E5 F2400
;TYPE:Perimeter
;WIDTH:0.419999
G1 F1200
G1 X110.525 Y117.025 E.00755
G1 X110.226 Y119.864 E.08951
G1 X110.155 Y120.208 E.01101
G1 X98.556 Y120.208 E.36368
G1 X98.556 Y93.244 E.84544
G1 X98.644 Y92.015 E.03863
G1 X98.892 Y90.875 E.03658
G1 X99.299 Y89.782 E.03657
G1 X99.858 Y88.759 E.03655
G1 X100.557 Y87.825 E.03658
G1 X101.382 Y87 E.03658
G1 X102.316 Y86.3 E.0366
G1 X103.34 Y85.741 E.03658
G1 X104.433 Y85.334 E.03657
G1 X105.574 Y85.085 E.03662
G1 X106.803 Y84.997 E.03863
G1 X121.444 Y84.997 E.45906
G1 X121.444 Y90.066 E.15893
G1 X121.444 Y111.409 E.66919
G1 X121.059 Y111.428 E.01209
G1 X118.878 Y111.199 E.06876
G1 X118.553 Y111.196 E.01019
G1 X118.075 Y111.309 E.0154
G1 X117.686 Y111.526 E.01397
G1 X117.376 Y111.825 E.0135
G1 X117.122 Y112.263 E.01588
G1 X117.013 Y112.709 E.0144
G1 X116.672 Y115.947 E.10209
G1 X112.383 Y115.514 E.13516
G1 X112.046 Y115.514 E.01057
G1 X111.556 Y115.637 E.01584
G1 X111.157 Y115.873 E.01453
G1 X110.837 Y116.208 E.01453
G1 X110.61 Y116.644 E.01541
G1 X110.59 Y116.732 E.00283
G1 X110.59 Y116.732 F9000
G1 X110.955 Y116.862
G1 F1200
G1 X110.9 Y117.065 E.00659
G1 X110.601 Y119.903 E.08948
G1 X110.488 Y120.585 E.02168
G1 X98.179 Y120.585 E.38594
G1 X98.179 Y93.23 E.8577
G1 X98.27 Y91.961 E.03989
G1 X98.529 Y90.768 E.03828
G1 X98.955 Y89.625 E.03825
G1 X99.54 Y88.554 E.03826
G1 X100.271 Y87.577 E.03826
G1 X101.135 Y86.714 E.03829
G1 X102.112 Y85.982 E.03828
G1 X103.184 Y85.397 E.03829
G1 X104.327 Y84.971 E.03825
G1 X105.52 Y84.711 E.03828
G1 X106.789 Y84.62 E.03989
G1 X121.821 Y84.62 E.47132
G1 X121.821 Y90.066 E.17076
G1 X121.821 Y111.822 E.68214
G1 X121.439 Y111.783 E.01204
G1 X121.102 Y111.812 E.01061
G1 X118.838 Y111.574 E.07138
G1 X118.379 Y111.606 E.01443
G1 X118.081 Y111.721 E.01002
G1 X117.742 Y111.979 E.01336
G1 X117.507 Y112.323 E.01306
G1 X117.388 Y112.748 E.01384
G1 X117.008 Y116.36 E.11388
G1 X112.345 Y115.889 E.14695
G1 X111.976 Y115.904 E.01158
G1 X111.573 Y116.048 E.01342
G1 X111.22 Y116.331 E.01419
G1 X111.011 Y116.655 E.01209
G1 X110.971 Y116.804 E.00484
G1 X110.971 Y116.804 F9000
G1 X111.311 Y116.969
G1 F1200
G1 X111.275 Y117.104 E.00438
G1 X110.976 Y119.942 E.08948
G1 X110.89 Y120.358 E.01332
G1 X110.829 Y120.962 E.01903
G1 X97.802 Y120.962 E.40845
G1 X97.802 Y93.217 E.86992
G1 X97.895 Y91.908 E.04115
G1 X98.166 Y90.662 E.03998
G1 X98.611 Y89.468 E.03995
G1 X99.222 Y88.35 E.03995
G1 X99.986 Y87.33 E.03996
G1 X100.887 Y86.428 E.03997
G1 X101.907 Y85.664 E.03996
G1 X103.027 Y85.053 E.04
G1 X104.22 Y84.608 E.03992
G1 X105.467 Y84.337 E.04001
G1 X106.776 Y84.243 E.04115
G1 X122.198 Y84.243 E.48355
G1 X122.198 Y90.066 E.18258
G1 X122.198 Y112.239 E.69522
G1 X121.174 Y112.163 E.0322
G1 X121.146 Y112.196 E.00136
G1 X118.799 Y111.949 E.07399
G1 X118.618 Y111.947 E.00568
G1 X118.353 Y112.01 E.00854
G1 X118.094 Y112.165 E.00946
G1 X117.871 Y112.439 E.01108
G1 X117.763 Y112.788 E.01145
G1 X117.344 Y116.773 E.12564
G1 X112.307 Y116.264 E.15874
G1 X112.17 Y116.261 E.0043
G1 X111.848 Y116.333 E.01035
G1 X111.564 Y116.518 E.01063
G1 X111.354 Y116.811 E.0113
G1 X111.327 Y116.911 E.00325
G1 X111.327 Y116.911 F9000
G1 X111.682 Y117.058
G1 F1200
G1 X111.65 Y117.143 E.00285
G1 X111.351 Y119.982 E.08951
G1 X111.265 Y120.396 E.01326
G1 X111.17 Y121.339 E.02972
G1 X97.425 Y121.339 E.43096
G1 X97.425 Y93.203 E.88218
G1 X97.521 Y91.854 E.0424
G1 X97.803 Y90.556 E.04165
G1 X98.267 Y89.311 E.04166
G1 X98.904 Y88.145 E.04166
G1 X99.7 Y87.082 E.04164
G1 X100.64 Y86.142 E.04168
G1 X101.703 Y85.346 E.04164
G1 X102.87 Y84.709 E.04169
G1 X104.114 Y84.246 E.04162
G1 X105.413 Y83.963 E.04168
G1 X106.762 Y83.866 E.04241
G1 X122.575 Y83.866 E.4958
G1 X122.575 Y90.066 E.1944
G1 X122.575 Y112.656 E.70829
G1 X121.363 Y112.534 E.03819
G1 X121.227 Y112.536 E.00426
G1 X121.19 Y112.579 E.00178
G1 X118.759 Y112.324 E.07664
G1 X118.651 Y112.323 E.00339
G1 X118.435 Y112.387 E.00706
G1 X118.236 Y112.563 E.00833
G1 X118.138 Y112.827 E.00883
G1 X117.68 Y117.186 E.13743
G1 X112.269 Y116.64 E.17052
G1 X111.977 Y116.688 E.00928
G1 X111.754 Y116.871 E.00904
G1 X111.703 Y117.002 E.00441
G1 X111.703 Y117.002 F9000
G1 X112.025 Y117.183
;TYPE:External perimeter
G1 F1200
G1 X111.69 Y120.365 E.10032
G1 X111.64 Y120.434 E.00267
G1 X111.511 Y121.716 E.0404
G1 X97.047 Y121.716 E.45351
G1 X97.047 Y93.19 E.89441
G1 X97.147 Y91.8 E.0437
G1 X97.441 Y90.449 E.04335
G1 X97.923 Y89.154 E.04333
G1 X98.586 Y87.941 E.04334
G1 X99.414 Y86.834 E.04334
G1 X100.392 Y85.857 E.04334
G1 X101.499 Y85.028 E.04336
G1 X102.713 Y84.366 E.04336
G1 X104.007 Y83.883 E.04331
G1 X105.359 Y83.588 E.04339
G1 X106.749 Y83.489 E.04369
G1 X122.953 Y83.489 E.50806
G1 X122.953 Y90.066 E.20622
G1 X122.953 Y113.073 E.72137
G1 X121.325 Y112.909 E.0513
G1 X121.233 Y112.963 E.00334
G1 X118.72 Y112.699 E.07923
G1 X118.597 Y112.729 E.00397
G1 X118.513 Y112.867 E.00507
G1 X118.015 Y117.599 E.14919
G1 X112.231 Y117.015 E.18228
G1 X112.108 Y117.045 E.00397
G1 X112.056 Y117.131 E.00315
G1 E-3.5 F3600
;WIPE_START
G1 F7200
G1 X112.025 Y117.183 E-.02876
G1 X111.701 Y120.263 E-1.47124
;WIPE_END
G1 X103.034 Y89.738 F9000
G1 E5 F2400
;TYPE:Perimeter
G1 F1200
G1 X103.196 Y89.565 E.00743
G1 X103.847 Y89.025 E.02652
G1 X104.209 Y88.795 E.01345
G1 X104.974 Y88.436 E.0265
G1 X105.376 Y88.306 E.01325
G1 X106.207 Y88.147 E.02653
G1 X106.761 Y88.128 E.01738
G1 X107.476 Y88.173 E.02246
G1 X107.894 Y88.253 E.01334
G1 X108.698 Y88.514 E.0265
G1 X109.083 Y88.695 E.01334
G1 X109.796 Y89.148 E.02649
G1 X110.123 Y89.419 E.01332
G1 X110.702 Y90.035 E.02651
G1 X110.952 Y90.379 E.01333
G1 X111.36 Y91.12 E.02652
G1 X111.517 Y91.517 E.01339
G1 X111.727 Y92.336 E.02651
G1 X111.78 Y92.757 E.0133
G1 X111.78 Y93.602 E.02649
G1 X111.727 Y94.023 E.0133
G1 X111.517 Y94.842 E.02651
G1 X111.36 Y95.239 E.01339
G1 X110.952 Y95.98 E.02652
G1 X110.702 Y96.324 E.01333
G1 X110.123 Y96.94 E.02651
G1 X109.796 Y97.211 E.01332
G1 X109.083 Y97.663 E.02647
G1 X108.698 Y97.844 E.01334
G1 X107.894 Y98.106 E.02651
G1 X107.476 Y98.186 E.01334
G1 X106.632 Y98.239 E.02652
G1 X106.207 Y98.212 E.01335
G1 X105.376 Y98.053 E.02653
G1 X104.974 Y97.922 E.01326
G1 X104.209 Y97.563 E.0265
G1 X103.847 Y97.333 E.01345
G1 X103.196 Y96.794 E.0265
G1 X102.907 Y96.485 E.01327
G1 X102.41 Y95.802 E.02648
G1 X102.205 Y95.429 E.01335
G1 X101.893 Y94.643 E.02652
G1 X101.787 Y94.231 E.01334
G1 X101.682 Y93.391 E.02654
G1 X101.682 Y92.966 E.01333
G1 X101.787 Y92.128 E.02648
G1 X101.893 Y91.715 E.01337
G1 X102.205 Y90.93 E.02649
G1 X102.435 Y90.522 E.01469
G1 X102.907 Y89.873 E.02516
G1 X102.993 Y89.781 E.00395
G1 X102.993 Y89.781 F9000
G1 X103.307 Y89.993
G1 F1200
G1 X103.437 Y89.855 E.00594
G1 X104.087 Y89.316 E.02648
G1 X104.369 Y89.137 E.01047
G1 X105.134 Y88.778 E.0265
G1 X105.447 Y88.676 E.01032
G1 X106.278 Y88.517 E.02653
G1 X106.737 Y88.505 E.0144
G1 X107.452 Y88.549 E.02246
G1 X107.778 Y88.611 E.0104
G1 X108.582 Y88.873 E.02651
G1 X108.881 Y89.014 E.01037
G1 X109.594 Y89.466 E.02647
G1 X109.848 Y89.677 E.01035
G1 X110.427 Y90.293 E.02651
G1 X110.622 Y90.56 E.01037
G1 X111.03 Y91.301 E.02652
G1 X111.152 Y91.61 E.01042
G1 X111.361 Y92.429 E.0265
G1 X111.403 Y92.757 E.01037
G1 X111.403 Y93.602 E.02649
G1 X111.361 Y93.929 E.01034
G1 X111.152 Y94.748 E.0265
G1 X111.03 Y95.057 E.01042
G1 X110.622 Y95.798 E.02652
G1 X110.427 Y96.065 E.01037
G1 X109.848 Y96.682 E.02653
G1 X109.594 Y96.892 E.01033
G1 X108.881 Y97.345 E.02649
G1 X108.582 Y97.486 E.01037
G1 X107.778 Y97.747 E.0265
G1 X107.452 Y97.809 E.0104
G1 X106.608 Y97.862 E.02652
G1 X106.278 Y97.841 E.01037
G1 X105.447 Y97.683 E.02652
G1 X105.134 Y97.581 E.01032
G1 X104.369 Y97.222 E.0265
G1 X104.087 Y97.043 E.01047
G1 X103.437 Y96.503 E.0265
G1 X103.212 Y96.264 E.01029
G1 X102.715 Y95.58 E.02651
G1 X102.555 Y95.29 E.01038
G1 X102.244 Y94.505 E.02647
G1 X102.161 Y94.183 E.01043
G1 X102.056 Y93.344 E.02651
G1 X102.056 Y93.014 E.01035
G1 X102.162 Y92.175 E.02652
G1 X102.244 Y91.854 E.01039
G1 X102.555 Y91.069 E.02647
G1 X102.74 Y90.743 E.01175
G1 X103.212 Y90.095 E.02514
G1 X103.266 Y90.037 E.00248
G1 X103.614 Y90.226 F9000
G1 F1200
G1 X103.89 Y89.97 E.0118
G1 X104.328 Y89.606 E.01786
G1 X104.978 Y89.268 E.02297
G1 X105.456 Y89.06 E.01634
G1 X106.232 Y88.91 E.02478
G1 X106.585 Y88.873 E.01113
G1 X107.428 Y88.926 E.02648
G1 X108.465 Y89.232 E.0339
G1 X109.392 Y89.785 E.03384
G1 X110.153 Y90.551 E.03385
G1 X110.699 Y91.483 E.03387
G1 X110.787 Y91.704 E.00746
G1 X110.996 Y92.523 E.0265
G1 X111.026 Y93.602 E.03384
G1 X110.787 Y94.655 E.03386
G1 X110.699 Y94.875 E.00743
G1 X110.291 Y95.616 E.02652
G1 X109.574 Y96.424 E.03387
G1 X109.392 Y96.574 E.00739
G1 X108.679 Y97.027 E.02649
G1 X108.465 Y97.127 E.00741
G1 X107.661 Y97.389 E.02651
G1 X107.084 Y97.455 E.01821
G1 X106.585 Y97.486 E.01568
G1 X106.349 Y97.471 E.00741
G1 X105.518 Y97.312 E.02653
G1 X104.529 Y96.881 E.03383
G1 X104.328 Y96.753 E.00747
G1 X103.677 Y96.213 E.02652
G1 X103.02 Y95.358 E.03381
G1 X102.595 Y94.366 E.03384
G1 X102.43 Y93.297 E.03391
G1 X102.497 Y92.529 E.02417
G1 X102.595 Y91.993 E.01708
G1 X102.906 Y91.208 E.02647
G1 X103.517 Y90.317 E.03387
G1 X103.57 Y90.267 E.00228
G1 X103.57 Y90.267 F9000
G1 X103.881 Y90.488
G1 F1200
G1 X104.569 Y89.896 E.02846
G1 X105.138 Y89.609 E.01998
G1 X105.589 Y89.417 E.01537
G1 X106.42 Y89.258 E.02653
G1 X107.405 Y89.302 E.03091
G1 X108.349 Y89.59 E.03095
G1 X109.19 Y90.103 E.03089
G1 X109.878 Y90.81 E.03093
G1 X110.369 Y91.665 E.03091
G1 X110.631 Y92.616 E.03093
G1 X110.649 Y93.602 E.03092
G1 X110.421 Y94.561 E.03091
G1 X109.961 Y95.435 E.03097
G1 X109.299 Y96.165 E.0309
G1 X108.477 Y96.708 E.03089
G1 X107.544 Y97.03 E.03095
G1 X106.561 Y97.11 E.03092
G1 X105.589 Y96.942 E.03093
G1 X104.689 Y96.539 E.03092
G1 X103.918 Y95.923 E.03094
G1 X103.325 Y95.136 E.0309
G1 X102.945 Y94.227 E.03089
G1 X102.804 Y93.25 E.03095
G1 X102.871 Y92.576 E.02124
G1 X102.945 Y92.132 E.01411
G1 X103.256 Y91.346 E.0265
G1 X103.822 Y90.539 E.03091
G1 X103.835 Y90.527 E.00055
G1 X104.12 Y90.77 F9000
;TYPE:External perimeter
G1 F1200
G1 X104.127 Y90.76 E.00038
G1 X104.809 Y90.186 E.02795
G1 X105.298 Y89.95 E.01702
G1 X105.659 Y89.787 E.01242
G1 X106.49 Y89.628 E.02653
G1 X107.381 Y89.678 E.02798
G1 X108.232 Y89.949 E.028
G1 X108.988 Y90.421 E.02794
G1 X109.603 Y91.068 E.02799
G1 X110.038 Y91.847 E.02798
G1 X110.266 Y92.71 E.02799
G1 X110.271 Y93.602 E.02797
G1 X110.056 Y94.468 E.02798
G1 X109.631 Y95.253 E.02799
G1 X109.024 Y95.907 E.02798
G1 X108.275 Y96.39 E.02794
G1 X107.428 Y96.671 E.02798
G1 X106.538 Y96.733 E.02797
G1 X105.659 Y96.571 E.02802
G1 X104.85 Y96.198 E.02793
G1 X104.159 Y95.633 E.02799
G1 X103.63 Y94.915 E.02796
G1 X103.296 Y94.088 E.02796
G1 X103.178 Y93.202 E.02803
G1 X103.296 Y92.271 E.02942
G1 X103.607 Y91.485 E.0265
G1 X104.085 Y90.819 E.0257
G1 E-3.5 F3600
;WIPE_START
G1 F7200
G1 X104.12 Y90.77 E-.0286
G1 X104.127 Y90.76 E-.0058
G1 X104.809 Y90.186 E-.42342
G1 X105.298 Y89.95 E-.25791
G1 X105.659 Y89.787 E-.18814
G1 X106.49 Y89.628 E-.40189
G1 X106.898 Y89.651 E-.19424
;WIPE_END
G1 X120.56 Y85.118 F9000
G1 E5 F2400
;TYPE:Solid infill
;WIDTH:0.420643
G1 F1200
G1 X121.154 Y85.712 E.02638
G1 X121.154 Y86.246 E.01677
G1 X120.195 Y85.288 E.04257
G1 X119.661 Y85.288 E.01677
G1 X121.154 Y86.78 E.06629
G1 X121.154 Y87.314 E.01677
G1 X119.127 Y85.288 E.09001
G1 X118.593 Y85.288 E.01677
G1 X121.154 Y87.848 E.11373
G1 X121.154 Y88.383 E.0168
G1 X118.059 Y85.288 E.13747
G1 X117.525 Y85.288 E.01677
G1 X121.154 Y88.917 E.16119
G1 X121.154 Y89.451 E.01677
G1 X116.99 Y85.288 E.18493
G1 X116.456 Y85.288 E.01677
G1 X121.154 Y89.985 E.20865
G1 X121.154 Y90.519 E.01677
G1 X115.922 Y85.288 E.23237
G1 X115.388 Y85.288 E.01677
G1 X121.154 Y91.054 E.25611
G1 X121.154 Y91.588 E.01677
G1 X114.854 Y85.288 E.27983
G1 X114.319 Y85.288 E.0168
G1 X121.154 Y92.122 E.30357
G1 X121.154 Y92.656 E.01677
G1 X113.785 Y85.288 E.32729
G1 X113.251 Y85.288 E.01677
G1 X121.154 Y93.19 E.35101
G1 X121.154 Y93.724 E.01677
G1 X112.717 Y85.288 E.37473
G1 X112.183 Y85.288 E.01677
G1 X121.154 Y94.259 E.39847
G1 X121.154 Y94.793 E.01677
G1 X111.649 Y85.288 E.42219
G1 X111.114 Y85.288 E.0168
G1 X121.154 Y95.327 E.44593
G1 X121.154 Y95.861 E.01677
G1 X110.58 Y85.288 E.46965
G1 X110.046 Y85.288 E.01677
G1 X121.154 Y96.395 E.49337
G1 X121.154 Y96.93 E.0168
G1 X109.512 Y85.288 E.51711
G1 X108.978 Y85.288 E.01677
G1 X121.154 Y97.464 E.54083
G1 X121.154 Y97.998 E.01677
G1 X108.443 Y85.288 E.56457
G1 X107.909 Y85.288 E.01677
G1 X121.154 Y98.532 E.58829
G1 X121.154 Y99.066 E.01677
G1 X107.375 Y85.288 E.612
G1 X106.841 Y85.288 E.01677
G1 X121.154 Y99.6 E.63572
G1 X121.154 Y100.135 E.0168
G1 X106.341 Y85.321 E.65798
G1 X105.842 Y85.357 E.01571
G1 X108.692 Y88.207 E.12659
G1 X107.913 Y87.962 E.02565
G1 X105.376 Y85.426 E.11266
G1 X104.938 Y85.521 E.01408
G1 X107.287 Y87.87 E.10434
G1 X106.717 Y87.835 E.01794
G1 X104.501 Y85.618 E.09845
G1 X104.112 Y85.764 E.01305
G1 X106.21 Y87.862 E.09319
G1 X105.758 Y87.943 E.01442
G1 X103.723 Y85.909 E.09037
G1 X103.461 Y86.006 E.00877
G1 X103.348 Y86.068 E.00405
G1 X105.305 Y88.025 E.08692
G1 X104.901 Y88.156 E.01334
G1 X103.002 Y86.257 E.08435
G1 X102.657 Y86.445 E.01234
G1 X104.534 Y88.322 E.08337
G1 X104.17 Y88.493 E.01263
G1 X102.33 Y86.653 E.08173
G1 X102.025 Y86.881 E.01196
G1 X103.825 Y88.682 E.07997
G1 X103.532 Y88.923 E.01192
G1 X101.719 Y87.11 E.08053
G1 X101.573 Y87.22 E.00574
G1 X101.434 Y87.359 E.00617
G1 X103.239 Y89.164 E.08017
G1 X102.946 Y89.406 E.01194
G1 X101.167 Y87.626 E.07904
G1 X100.899 Y87.893 E.01188
G1 X102.689 Y89.682 E.07948
G1 X102.466 Y89.994 E.01204
G1 X100.653 Y88.181 E.08053
G1 X100.424 Y88.486 E.01198
G1 X102.245 Y90.307 E.08088
G1 X102.028 Y90.624 E.01207
G1 X100.196 Y88.792 E.08137
